svgs/sharp-solid/briefcase-arrow-right.svg

<svg xmlns="http://www.w3.org/2000/svg" viewBox="0 0 512 512"><!--! Font Awesome Pro 6.6.0 by @fontawesome - https://fontawesome.com License - https://fontawesome.com/license (Commercial License) Copyright 2024 Fonticons, Inc. --><path d="M128 0l24 0L360 0l24 0 0 24 0 72 128 0 0 384L0 480 0 96l128 0 0-72 0-24zM336 48L176 48l0 48 160 0 0-48zM297 191l-17-17L246.1 208l17 17 39 39L152 264l-24 0 0 48 24 0 150.1 0-39 39-17 17L280 401.9l17-17 80-80 17-17-17-17-80-80z"/></svg>

<svg xmlns="http://www.w3.org/2000/svg" viewBox="0 0 512 512"><!--! Font Awesome Pro 6.4.2 by @fontawesome - https://fontawesome.com License - https://fontawesome.com/license (Commercial License) Copyright 2023 Fonticons, Inc. --><path d="M128 0h24H360h24V24 96H512V480H0V96H128V24 0zM336 48H176V96H336V48zM297 191l-17-17L246.1 208l17 17 39 39H152 128v48h24H302.1l-39 39-17 17L280 401.9l17-17 80-80 17-17-17-17-80-80z"/></svg>
